brand-assets/vitest/vitest-icon-color-dark.svg

<svg width="77" height="47" viewBox="0 0 77 47" fill="none" xmlns="http://www.w3.org/2000/svg">
<path d="M36.7645 42.9736C36.4327 43.5638 35.6616 43.7318 35.1122 43.3333L15.9638 29.4066C15.6709 29.1934 15.4985 28.853 15.4985 28.4911V11.7058C15.4985 10.7817 16.5476 10.2475 17.2951 10.7903L29.0073 19.3079C30.1016 20.1049 31.6462 19.7667 32.3097 18.5884L42.0099 1.34428C42.2102 0.988847 42.5872 0.766968 42.9965 0.766968H58.5711C59.4371 0.766968 59.9821 1.69972 59.5577 2.45368L36.7645 42.9714V42.9736Z" fill="#00FF74"/>
<mask id="mask0_2002_17382" style="mask-type:alpha" maskUnits="userSpaceOnUse" x="15" y="0" width="45" height="44">
<path d="M36.7645 42.9734C36.4327 43.5637 35.6616 43.7317 35.1122 43.3332L15.9638 29.4065C15.6709 29.1932 15.4985 28.8529 15.4985 28.491V11.7057C15.4985 10.7816 16.5476 10.2473 17.2951 10.7902L29.0073 19.3078C30.1016 20.1048 31.6462 19.7666 32.3097 18.5883L42.0099 1.34416C42.2102 0.988725 42.5872 0.766846 42.9965 0.766846H58.5711C59.4371 0.766846 59.9821 1.6996 59.5577 2.45356L36.7645 42.9713V42.9734Z" fill="black"/>
</mask>
<g mask="url(#mask0_2002_17382)">
<g filter="url(#filter0_f_2002_17382)">
<ellipse cx="14.0313" cy="3.39062" rx="14.0313" ry="3.39062" transform="matrix(-0.650066 0.759878 0.759879 0.650065 48.0078 -2.85205)" fill="#00D0C7"/>
</g>
<g filter="url(#filter1_f_2002_17382)">
<ellipse cx="14.0313" cy="6.0868" rx="14.0313" ry="6.0868" transform="matrix(-0.588245 -0.808682 -0.808682 0.588246 31.6079 38.2737)" fill="#00D0C7"/>
</g>
<g filter="url(#filter2_f_2002_17382)">
<ellipse cx="21.9417" cy="12.9621" rx="6.37416" ry="5.55082" transform="rotate(23.1293 21.9417 12.9621)" fill="#03FF00"/>
</g>
<g filter="url(#filter3_f_2002_17382)">
<ellipse cx="56.2731" cy="16.7177" rx="5.61461" ry="24.5343" transform="rotate(23.1293 56.2731 16.7177)" fill="#03FF00"/>
</g>
<g filter="url(#filter4_f_2002_17382)">
<ellipse cx="4.98534" cy="10.0691" rx="4.98534" ry="10.0691" transform="matrix(0.707107 -0.707107 -0.707107 -0.707107 54.9468 11.7083)" fill="#6EFFE1"/>
</g>
</g>
<path d="M6.91893 0.00012207C-2.27936 13.1664 -2.33322 33.575 6.91893 46.7886H13.1337C3.8837 33.575 3.93756 13.1664 13.1337 0.00012207H6.91893Z" fill="#08060E"/>
<path d="M69.3403 0.00012207H63.1255C72.3238 13.1664 72.3776 33.575 63.1255 46.7886H69.3403C78.5902 33.575 78.5364 13.1664 69.3403 0.00012207Z" fill="#08060E"/>
<defs>
<filter id="filter0_f_2002_17382" x="22.7913" y="-10.0666" width="37.3432" height="40.1615" filterUnits="userSpaceOnUse" color-interpolation-filters="sRGB">
<feFlood flood-opacity="0" result="BackgroundImageFix"/>
<feBlend mode="normal" in="SourceGraphic" in2="BackgroundImageFix" result="shape"/>
<feGaussianBlur stdDeviation="4.59556" result="effect1_foregroundBlur_2002_17382"/>
</filter>
<filter id="filter1_f_2002_17382" x="-0.370801" y="9.41472" width="37.6054" height="42.1853" filterUnits="userSpaceOnUse" color-interpolation-filters="sRGB">
<feFlood flood-opacity="0" result="BackgroundImageFix"/>
<feBlend mode="normal" in="SourceGraphic" in2="BackgroundImageFix" result="shape"/>
<feGaussianBlur stdDeviation="4.59556" result="effect1_foregroundBlur_2002_17382"/>
</filter>
<filter id="filter2_f_2002_17382" x="6.49443" y="-1.91597" width="30.8944" height="29.7561" filterUnits="userSpaceOnUse" color-interpolation-filters="sRGB">
<feFlood flood-opacity="0" result="BackgroundImageFix"/>
<feBlend mode="normal" in="SourceGraphic" in2="BackgroundImageFix" result="shape"/>
<feGaussianBlur stdDeviation="4.59556" result="effect1_foregroundBlur_2002_17382"/>
</filter>
<filter id="filter3_f_2002_17382" x="36.1468" y="-15.1448" width="40.2528" height="63.7251" filterUnits="userSpaceOnUse" color-interpolation-filters="sRGB">
<feFlood flood-opacity="0" result="BackgroundImageFix"/>
<feBlend mode="normal" in="SourceGraphic" in2="BackgroundImageFix" result="shape"/>
<feGaussianBlur stdDeviation="4.59556" result="effect1_foregroundBlur_2002_17382"/>
</filter>
<filter id="filter4_f_2002_17382" x="34.2142" y="-16.0745" width="34.2758" height="34.2754" filterUnits="userSpaceOnUse" color-interpolation-filters="sRGB">
<feFlood flood-opacity="0" result="BackgroundImageFix"/>
<feBlend mode="normal" in="SourceGraphic" in2="BackgroundImageFix" result="shape"/>
<feGaussianBlur stdDeviation="4.59556" result="effect1_foregroundBlur_2002_17382"/>
</filter>
</defs>
</svg>

<svg xmlns="http://www.w3.org/2000/svg" width="77" height="47" fill="none" viewBox="0 0 77 47"><path fill="#00ff74" d="M36.765 42.974a1.13 1.13 0 0 1-1.653.36L15.964 29.406a1.13 1.13 0 0 1-.466-.916V11.706c0-.924 1.05-1.458 1.797-.916l11.712 8.518a2.263 2.263 0 0 0 3.303-.72l9.7-17.244c.2-.355.577-.577.986-.577h15.575c.866 0 1.411.933.987 1.687L36.765 42.97z"/><mask id="a" width="45" height="44" x="15" y="0" maskUnits="userSpaceOnUse" style="mask-type:alpha"><path fill="#000" d="M36.765 42.973a1.13 1.13 0 0 1-1.653.36L15.964 29.407a1.13 1.13 0 0 1-.466-.916V11.706c0-.924 1.05-1.459 1.797-.916l11.712 8.518a2.263 2.263 0 0 0 3.303-.72l9.7-17.244c.2-.355.577-.577.986-.577h15.575c.866 0 1.411.933.987 1.687L36.765 42.97z"/></mask><g mask="url(#a)"><g filter="url(#b)"><ellipse cx="14.031" cy="3.391" fill="#00d0c7" rx="14.031" ry="3.391" transform="rotate(130.547 24.66 9.628)scale(1 -1)"/></g><g filter="url(#c)"><ellipse cx="14.031" cy="6.087" fill="#00d0c7" rx="14.031" ry="6.087" transform="rotate(53.967 -21.78 50.176)scale(-1 1)"/></g><g filter="url(#d)"><ellipse cx="21.942" cy="12.962" fill="#03ff00" rx="6.374" ry="5.551" transform="rotate(23.13 21.942 12.962)"/></g><g filter="url(#e)"><ellipse cx="56.273" cy="16.718" fill="#03ff00" rx="5.615" ry="24.534" transform="rotate(23.13 56.273 16.718)"/></g><g filter="url(#f)"><ellipse cx="4.985" cy="10.069" fill="#6effe1" rx="4.985" ry="10.069" transform="rotate(135 25.049 17.234)scale(-1 1)"/></g></g><path fill="#08060e" d="M6.919 0c-9.198 13.166-9.252 33.575 0 46.789h6.215c-9.25-13.214-9.196-33.623 0-46.789zM69.34 0h-6.215c9.199 13.166 9.253 33.575 0 46.789h6.215c9.25-13.214 9.196-33.623 0-46.789"/><defs><filter id="b" width="37.343" height="40.161" x="22.791" y="-10.067" color-interpolation-filters="sRGB" filterUnits="userSpaceOnUse"><feFlood flood-opacity="0" result="BackgroundImageFix"/><feBlend in="SourceGraphic" in2="BackgroundImageFix" result="shape"/><feGaussianBlur result="effect1_foregroundBlur_2002_17382" stdDeviation="4.596"/></filter><filter id="c" width="37.605" height="42.185" x="-.371" y="9.415" color-interpolation-filters="sRGB" filterUnits="userSpaceOnUse"><feFlood flood-opacity="0" result="BackgroundImageFix"/><feBlend in="SourceGraphic" in2="BackgroundImageFix" result="shape"/><feGaussianBlur result="effect1_foregroundBlur_2002_17382" stdDeviation="4.596"/></filter><filter id="d" width="30.894" height="29.756" x="6.494" y="-1.916" color-interpolation-filters="sRGB" filterUnits="userSpaceOnUse"><feFlood flood-opacity="0" result="BackgroundImageFix"/><feBlend in="SourceGraphic" in2="BackgroundImageFix" result="shape"/><feGaussianBlur result="effect1_foregroundBlur_2002_17382" stdDeviation="4.596"/></filter><filter id="e" width="40.253" height="63.725" x="36.147" y="-15.145" color-interpolation-filters="sRGB" filterUnits="userSpaceOnUse"><feFlood flood-opacity="0" result="BackgroundImageFix"/><feBlend in="SourceGraphic" in2="BackgroundImageFix" result="shape"/><feGaussianBlur result="effect1_foregroundBlur_2002_17382" stdDeviation="4.596"/></filter><filter id="f" width="34.276" height="34.275" x="34.214" y="-16.075" color-interpolation-filters="sRGB" filterUnits="userSpaceOnUse"><feFlood flood-opacity="0" result="BackgroundImageFix"/><feBlend in="SourceGraphic" in2="BackgroundImageFix" result="shape"/><feGaussianBlur result="effect1_foregroundBlur_2002_17382" stdDeviation="4.596"/></filter></defs></svg>
